images/6604118.svg

<?xml version="1.0" encoding="UTF-8"?>
<svg xmlns="http://www.w3.org/2000/svg" xmlns:xlink="http://www.w3.org/1999/xlink" width="300pt" height="300pt" viewBox="0 0 300 300" version="1.1">
<defs>
<g>
<symbol overflow="visible" id="glyph0-0">
<path style="stroke:none;" d="M 0.75 2.65625 L 0.75 -10.578125 L 8.25 -10.578125 L 8.25 2.65625 Z M 1.59375 1.8125 L 7.40625 1.8125 L 7.40625 -9.734375 L 1.59375 -9.734375 Z M 1.59375 1.8125 "/>
</symbol>
<symbol overflow="visible" id="glyph0-1">
<path style="stroke:none;" d="M 5.90625 -9.9375 C 4.832031 -9.9375 3.976562 -9.535156 3.34375 -8.734375 C 2.71875 -7.929688 2.40625 -6.835938 2.40625 -5.453125 C 2.40625 -4.078125 2.71875 -2.988281 3.34375 -2.1875 C 3.976562 -1.382812 4.832031 -0.984375 5.90625 -0.984375 C 6.976562 -0.984375 7.828125 -1.382812 8.453125 -2.1875 C 9.085938 -2.988281 9.40625 -4.078125 9.40625 -5.453125 C 9.40625 -6.835938 9.085938 -7.929688 8.453125 -8.734375 C 7.828125 -9.535156 6.976562 -9.9375 5.90625 -9.9375 Z M 5.90625 -11.140625 C 7.4375 -11.140625 8.660156 -10.625 9.578125 -9.59375 C 10.503906 -8.5625 10.96875 -7.179688 10.96875 -5.453125 C 10.96875 -3.734375 10.503906 -2.359375 9.578125 -1.328125 C 8.660156 -0.296875 7.4375 0.21875 5.90625 0.21875 C 4.375 0.21875 3.144531 -0.289062 2.21875 -1.3125 C 1.300781 -2.34375 0.84375 -3.722656 0.84375 -5.453125 C 0.84375 -7.179688 1.300781 -8.5625 2.21875 -9.59375 C 3.144531 -10.625 4.375 -11.140625 5.90625 -11.140625 Z M 5.90625 -11.140625 "/>
</symbol>
<symbol overflow="visible" id="glyph0-2">
<path style="stroke:none;" d="M 1.46875 -10.9375 L 2.953125 -10.9375 L 2.953125 -6.453125 L 8.328125 -6.453125 L 8.328125 -10.9375 L 9.8125 -10.9375 L 9.8125 0 L 8.328125 0 L 8.328125 -5.203125 L 2.953125 -5.203125 L 2.953125 0 L 1.46875 0 Z M 1.46875 -10.9375 "/>
</symbol>
<symbol overflow="visible" id="glyph0-3">
<path style="stroke:none;" d="M 1.46875 -10.9375 L 3.46875 -10.9375 L 8.3125 -1.78125 L 8.3125 -10.9375 L 9.75 -10.9375 L 9.75 0 L 7.75 0 L 2.90625 -9.140625 L 2.90625 0 L 1.46875 0 Z M 1.46875 -10.9375 "/>
</symbol>
<symbol overflow="visible" id="glyph0-4">
<path style="stroke:none;" d="M 8.03125 -10.578125 L 8.03125 -9.140625 C 7.46875 -9.398438 6.9375 -9.597656 6.4375 -9.734375 C 5.9375 -9.867188 5.457031 -9.9375 5 -9.9375 C 4.1875 -9.9375 3.5625 -9.78125 3.125 -9.46875 C 2.6875 -9.15625 2.46875 -8.707031 2.46875 -8.125 C 2.46875 -7.644531 2.613281 -7.28125 2.90625 -7.03125 C 3.195312 -6.789062 3.75 -6.59375 4.5625 -6.4375 L 5.453125 -6.25 C 6.554688 -6.039062 7.367188 -5.671875 7.890625 -5.140625 C 8.421875 -4.609375 8.6875 -3.898438 8.6875 -3.015625 C 8.6875 -1.953125 8.332031 -1.144531 7.625 -0.59375 C 6.914062 -0.0507812 5.875 0.21875 4.5 0.21875 C 3.976562 0.21875 3.425781 0.15625 2.84375 0.03125 C 2.257812 -0.0820312 1.65625 -0.253906 1.03125 -0.484375 L 1.03125 -2 C 1.632812 -1.664062 2.222656 -1.410156 2.796875 -1.234375 C 3.367188 -1.066406 3.9375 -0.984375 4.5 -0.984375 C 5.34375 -0.984375 5.992188 -1.148438 6.453125 -1.484375 C 6.910156 -1.816406 7.140625 -2.289062 7.140625 -2.90625 C 7.140625 -3.445312 6.972656 -3.867188 6.640625 -4.171875 C 6.316406 -4.472656 5.78125 -4.695312 5.03125 -4.84375 L 4.125 -5.03125 C 3.019531 -5.25 2.21875 -5.59375 1.71875 -6.0625 C 1.226562 -6.53125 0.984375 -7.179688 0.984375 -8.015625 C 0.984375 -8.984375 1.320312 -9.742188 2 -10.296875 C 2.6875 -10.859375 3.628906 -11.140625 4.828125 -11.140625 C 5.335938 -11.140625 5.859375 -11.09375 6.390625 -11 C 6.921875 -10.90625 7.46875 -10.765625 8.03125 -10.578125 Z M 8.03125 -10.578125 "/>
</symbol>
</g>
</defs>
<g id="surface54881">
<rect x="0" y="0" width="300" height="300" style="fill:rgb(100%,100%,100%);fill-opacity:1;stroke:none;"/>
<path style="fill:none;stroke-width:1.2;stroke-linecap:butt;stroke-linejoin:miter;stroke:rgb(0%,0%,0%);stroke-opacity:1;stroke-miterlimit:10;" d="M 41.59375 205.09375 L 70.640625 224.980469 "/>
<path style="fill:none;stroke-width:1;stroke-linecap:butt;stroke-linejoin:miter;stroke:rgb(0%,0%,0%);stroke-opacity:1;stroke-miterlimit:10;" d="M 102.382812 209.765625 L 102.382812 209.765625 M 99.492188 210.574219 L 99.945312 211.515625 M 96.605469 211.378906 L 97.503906 213.261719 M 93.714844 212.1875 L 95.066406 215.007812 M 90.824219 212.992188 L 92.628906 216.753906 M 87.9375 213.800781 L 90.1875 218.5 M 85.046875 214.605469 L 87.75 220.25 M 82.15625 215.414062 L 85.3125 221.996094 M 79.265625 216.21875 L 82.871094 223.742188 M 76.378906 217.027344 L 80.433594 225.488281 M 73.488281 217.832031 L 77.996094 227.238281 M 70.597656 218.640625 L 75.554688 228.984375 M 67.953125 219.378906 L 73.324219 230.582031 "/>
<path style="fill:none;stroke-width:1.2;stroke-linecap:butt;stroke-linejoin:miter;stroke:rgb(0%,0%,0%);stroke-opacity:1;stroke-miterlimit:10;" d="M 102.382812 209.765625 L 131.429688 229.652344 "/>
<path style="fill:none;stroke-width:1.2;stroke-linecap:butt;stroke-linejoin:miter;stroke:rgb(0%,0%,0%);stroke-opacity:1;stroke-miterlimit:10;" d="M 102.382812 209.765625 L 103.734375 192.21875 "/>
<path style="fill:none;stroke-width:1.2;stroke-linecap:butt;stroke-linejoin:miter;stroke:rgb(0%,0%,100%);stroke-opacity:1;stroke-miterlimit:10;" d="M 103.734375 192.21875 L 105.082031 174.667969 "/>
<path style=" stroke:none;fill-rule:nonzero;fill:rgb(0%,0%,0%);fill-opacity:1;" d="M 131.429688 229.652344 L 165.859375 220.042969 L 160.488281 208.839844 Z M 131.429688 229.652344 "/>
<path style="fill:none;stroke-width:1.2;stroke-linecap:butt;stroke-linejoin:miter;stroke:rgb(0%,0%,0%);stroke-opacity:1;stroke-miterlimit:10;" d="M 131.429688 229.652344 L 130.082031 247.203125 "/>
<path style="fill:none;stroke-width:1.2;stroke-linecap:butt;stroke-linejoin:miter;stroke:rgb(100%,0%,0%);stroke-opacity:1;stroke-miterlimit:10;" d="M 130.082031 247.203125 L 128.730469 264.75 "/>
<path style="fill:none;stroke-width:1.2;stroke-linecap:butt;stroke-linejoin:miter;stroke:rgb(0%,0%,0%);stroke-opacity:1;stroke-miterlimit:10;" d="M 163.175781 214.441406 L 165.871094 179.34375 "/>
<path style="fill:none;stroke-width:1.2;stroke-linecap:butt;stroke-linejoin:miter;stroke:rgb(0%,0%,0%);stroke-opacity:1;stroke-miterlimit:10;" d="M 171.703125 211.566406 L 173.859375 183.488281 "/>
<path style="fill:none;stroke-width:1.2;stroke-linecap:butt;stroke-linejoin:miter;stroke:rgb(0%,0%,0%);stroke-opacity:1;stroke-miterlimit:10;" d="M 192.21875 234.324219 L 163.175781 214.441406 "/>
<path style="fill:none;stroke-width:1.2;stroke-linecap:butt;stroke-linejoin:miter;stroke:rgb(0%,0%,0%);stroke-opacity:1;stroke-miterlimit:10;" d="M 165.871094 179.34375 L 197.617188 164.128906 "/>
<path style="fill:none;stroke-width:1.2;stroke-linecap:butt;stroke-linejoin:miter;stroke:rgb(0%,0%,0%);stroke-opacity:1;stroke-miterlimit:10;" d="M 197.617188 164.128906 L 226.664062 184.015625 "/>
<path style="fill:none;stroke-width:1.2;stroke-linecap:butt;stroke-linejoin:miter;stroke:rgb(0%,0%,0%);stroke-opacity:1;stroke-miterlimit:10;" d="M 195.84375 172.953125 L 219.078125 188.863281 "/>
<path style="fill:none;stroke-width:1.2;stroke-linecap:butt;stroke-linejoin:miter;stroke:rgb(0%,0%,0%);stroke-opacity:1;stroke-miterlimit:10;" d="M 197.617188 164.128906 L 198.964844 146.582031 "/>
<path style="fill:none;stroke-width:1.2;stroke-linecap:butt;stroke-linejoin:miter;stroke:rgb(100%,0%,0%);stroke-opacity:1;stroke-miterlimit:10;" d="M 198.964844 146.582031 L 200.3125 129.03125 "/>
<path style="fill:none;stroke-width:1.2;stroke-linecap:butt;stroke-linejoin:miter;stroke:rgb(0%,0%,0%);stroke-opacity:1;stroke-miterlimit:10;" d="M 226.664062 184.015625 L 223.964844 219.113281 "/>
<path style="fill:none;stroke-width:1.2;stroke-linecap:butt;stroke-linejoin:miter;stroke:rgb(0%,0%,0%);stroke-opacity:1;stroke-miterlimit:10;" d="M 226.664062 184.015625 L 242.535156 176.410156 "/>
<path style="fill:none;stroke-width:1.2;stroke-linecap:butt;stroke-linejoin:miter;stroke:rgb(100%,0%,0%);stroke-opacity:1;stroke-miterlimit:10;" d="M 242.535156 176.410156 L 258.40625 168.804688 "/>
<path style="fill:none;stroke-width:1.2;stroke-linecap:butt;stroke-linejoin:miter;stroke:rgb(0%,0%,0%);stroke-opacity:1;stroke-miterlimit:10;" d="M 223.964844 219.113281 L 192.21875 234.324219 "/>
<path style="fill:none;stroke-width:1.2;stroke-linecap:butt;stroke-linejoin:miter;stroke:rgb(0%,0%,0%);stroke-opacity:1;stroke-miterlimit:10;" d="M 217.210938 213.164062 L 191.816406 225.335938 "/>
<path style=" stroke:none;fill-rule:nonzero;fill:rgb(100%,100%,100%);fill-opacity:1;" d="M 247.40625 159.804688 L 270.40625 159.804688 L 270.40625 177.804688 L 247.40625 177.804688 Z M 247.40625 159.804688 "/>
<g style="fill:rgb(100%,0%,0%);fill-opacity:1;">
  <use xlink:href="#glyph0-1" x="247.40625" y="173.418945"/>
  <use xlink:href="#glyph0-2" x="258.955078" y="173.418945"/>
</g>
<path style=" stroke:none;fill-rule:nonzero;fill:rgb(100%,100%,100%);fill-opacity:1;" d="M 189.3125 120.03125 L 212.3125 120.03125 L 212.3125 138.03125 L 189.3125 138.03125 Z M 189.3125 120.03125 "/>
<g style="fill:rgb(100%,0%,0%);fill-opacity:1;">
  <use xlink:href="#glyph0-1" x="189.3125" y="133.645508"/>
  <use xlink:href="#glyph0-2" x="200.861328" y="133.645508"/>
</g>
<path style=" stroke:none;fill-rule:nonzero;fill:rgb(100%,100%,100%);fill-opacity:1;" d="M 117.730469 255.75 L 140.730469 255.75 L 140.730469 273.75 L 117.730469 273.75 Z M 117.730469 255.75 "/>
<g style="fill:rgb(100%,0%,0%);fill-opacity:1;">
  <use xlink:href="#glyph0-2" x="117.730469" y="269.364258"/>
  <use xlink:href="#glyph0-1" x="128.762695" y="269.364258"/>
</g>
<path style="fill:none;stroke-width:1.2;stroke-linecap:butt;stroke-linejoin:miter;stroke:rgb(0%,0%,100%);stroke-opacity:1;stroke-miterlimit:10;" d="M 105.082031 174.667969 L 90.558594 164.726562 "/>
<path style="fill:none;stroke-width:1.2;stroke-linecap:butt;stroke-linejoin:miter;stroke:rgb(0%,0%,0%);stroke-opacity:1;stroke-miterlimit:10;" d="M 90.558594 164.726562 L 76.035156 154.785156 "/>
<path style=" stroke:none;fill-rule:nonzero;fill:rgb(100%,100%,100%);fill-opacity:1;" d="M 94.082031 165.667969 L 117.082031 165.667969 L 117.082031 183.667969 L 94.082031 183.667969 Z M 94.082031 165.667969 "/>
<g style="fill:rgb(0%,0%,100%);fill-opacity:1;">
  <use xlink:href="#glyph0-3" x="94.082031" y="179.282227"/>
  <use xlink:href="#glyph0-2" x="105.057617" y="179.282227"/>
</g>
<path style="fill:none;stroke-width:1.2;stroke-linecap:butt;stroke-linejoin:miter;stroke:rgb(0%,0%,0%);stroke-opacity:1;stroke-miterlimit:10;" d="M 76.035156 154.785156 L 78.734375 119.6875 "/>
<path style="fill:none;stroke-width:1.2;stroke-linecap:butt;stroke-linejoin:miter;stroke:rgb(0%,0%,0%);stroke-opacity:1;stroke-miterlimit:10;" d="M 76.035156 154.785156 L 44.289062 169.996094 "/>
<path style="fill:none;stroke-width:1.2;stroke-linecap:butt;stroke-linejoin:miter;stroke:rgb(0%,0%,0%);stroke-opacity:1;stroke-miterlimit:10;" d="M 111.113281 83.335938 L 126.355469 74.535156 "/>
<path style="fill:none;stroke-width:1.2;stroke-linecap:butt;stroke-linejoin:miter;stroke:rgb(80%,80%,0%);stroke-opacity:1;stroke-miterlimit:10;" d="M 126.355469 74.535156 L 141.597656 65.734375 "/>
<path style="fill:none;stroke-width:1.2;stroke-linecap:butt;stroke-linejoin:miter;stroke:rgb(80%,80%,0%);stroke-opacity:1;stroke-miterlimit:10;" d="M 138.011719 67.804688 L 146.8125 83.046875 "/>
<path style="fill:none;stroke-width:1.2;stroke-linecap:butt;stroke-linejoin:miter;stroke:rgb(100%,0%,0%);stroke-opacity:1;stroke-miterlimit:10;" d="M 146.8125 83.046875 L 155.609375 98.289062 "/>
<path style="fill:none;stroke-width:1.2;stroke-linecap:butt;stroke-linejoin:miter;stroke:rgb(80%,80%,0%);stroke-opacity:1;stroke-miterlimit:10;" d="M 145.183594 63.664062 L 153.984375 78.90625 "/>
<path style="fill:none;stroke-width:1.2;stroke-linecap:butt;stroke-linejoin:miter;stroke:rgb(100%,0%,0%);stroke-opacity:1;stroke-miterlimit:10;" d="M 153.984375 78.90625 L 162.785156 94.148438 "/>
<path style="fill:none;stroke-width:1.2;stroke-linecap:butt;stroke-linejoin:miter;stroke:rgb(80%,80%,0%);stroke-opacity:1;stroke-miterlimit:10;" d="M 145.183594 63.664062 L 136.382812 48.421875 "/>
<path style="fill:none;stroke-width:1.2;stroke-linecap:butt;stroke-linejoin:miter;stroke:rgb(100%,0%,0%);stroke-opacity:1;stroke-miterlimit:10;" d="M 136.382812 48.421875 L 127.582031 33.179688 "/>
<path style="fill:none;stroke-width:1.2;stroke-linecap:butt;stroke-linejoin:miter;stroke:rgb(80%,80%,0%);stroke-opacity:1;stroke-miterlimit:10;" d="M 138.011719 67.804688 L 129.210938 52.5625 "/>
<path style="fill:none;stroke-width:1.2;stroke-linecap:butt;stroke-linejoin:miter;stroke:rgb(100%,0%,0%);stroke-opacity:1;stroke-miterlimit:10;" d="M 129.210938 52.5625 L 120.410156 37.320312 "/>
<path style="fill:none;stroke-width:1.2;stroke-linecap:butt;stroke-linejoin:miter;stroke:rgb(80%,80%,0%);stroke-opacity:1;stroke-miterlimit:10;" d="M 141.597656 65.734375 L 156.839844 56.933594 "/>
<path style="fill:none;stroke-width:1.2;stroke-linecap:butt;stroke-linejoin:miter;stroke:rgb(100%,0%,0%);stroke-opacity:1;stroke-miterlimit:10;" d="M 156.839844 56.933594 L 172.082031 48.132812 "/>
<path style=" stroke:none;fill-rule:nonzero;fill:rgb(100%,100%,100%);fill-opacity:1;" d="M 136.597656 56.734375 L 146.597656 56.734375 L 146.597656 74.734375 L 136.597656 74.734375 Z M 136.597656 56.734375 "/>
<g style="fill:rgb(80%,80%,0%);fill-opacity:1;">
  <use xlink:href="#glyph0-4" x="136.597656" y="70.348633"/>
</g>
<path style=" stroke:none;fill-rule:nonzero;fill:rgb(100%,100%,100%);fill-opacity:1;" d="M 153.199219 87.21875 L 165.199219 87.21875 L 165.199219 105.21875 L 153.199219 105.21875 Z M 153.199219 87.21875 "/>
<g style="fill:rgb(100%,0%,0%);fill-opacity:1;">
  <use xlink:href="#glyph0-1" x="153.199219" y="100.833008"/>
</g>
<path style=" stroke:none;fill-rule:nonzero;fill:rgb(100%,100%,100%);fill-opacity:1;" d="M 111.996094 26.25 L 123.996094 26.25 L 123.996094 44.25 L 111.996094 44.25 Z M 111.996094 26.25 "/>
<g style="fill:rgb(100%,0%,0%);fill-opacity:1;">
  <use xlink:href="#glyph0-1" x="111.996094" y="39.864258"/>
</g>
<path style=" stroke:none;fill-rule:nonzero;fill:rgb(100%,100%,100%);fill-opacity:1;" d="M 161.082031 39.132812 L 184.082031 39.132812 L 184.082031 57.132812 L 161.082031 57.132812 Z M 161.082031 39.132812 "/>
<g style="fill:rgb(100%,0%,0%);fill-opacity:1;">
  <use xlink:href="#glyph0-1" x="161.082031" y="52.74707"/>
  <use xlink:href="#glyph0-2" x="172.630859" y="52.74707"/>
</g>
</g>
</svg>

<svg xmlns="http://www.w3.org/2000/svg" xmlns:xlink="http://www.w3.org/1999/xlink" width="300pt" height="300pt" viewBox="0 0 300 300"><defs><symbol overflow="visible"><path d="M.75 2.656v-13.234h7.5V2.656zm.844-.844h5.812V-9.733H1.594zm0 0"/></symbol><symbol overflow="visible" id="a"><path d="M5.906-9.938c-1.074 0-1.93.403-2.562 1.204-.625.804-.938 1.898-.938 3.28 0 1.376.313 2.466.938 3.266.633.805 1.488 1.204 2.562 1.204 1.07 0 1.922-.4 2.547-1.204.633-.8.953-1.89.953-3.265 0-1.383-.32-2.477-.953-3.28-.625-.802-1.476-1.204-2.547-1.204zm0-1.203c1.532 0 2.754.515 3.672 1.546.926 1.03 1.39 2.414 1.39 4.14 0 1.72-.464 3.095-1.39 4.126C8.66-.298 7.438.22 5.906.22c-1.53 0-2.76-.51-3.687-1.532C1.3-2.345.843-3.723.843-5.452c0-1.728.457-3.11 1.375-4.142.925-1.03 2.155-1.547 3.686-1.547zm0 0"/></symbol><symbol overflow="visible" id="b"><path d="M1.47-10.938h1.483v4.485h5.375v-4.484h1.485V0H8.328v-5.203H2.953V0H1.47zm0 0"/></symbol><symbol overflow="visible" id="c"><path d="M1.47-10.938h2L8.31-1.78v-9.158H9.75V0h-2L2.906-9.14V0H1.47zm0 0"/></symbol><symbol overflow="visible" id="d"><path d="M8.03-10.578v1.437C7.47-9.4 6.94-9.6 6.44-9.735c-.5-.133-.98-.204-1.438-.204-.813 0-1.438.157-1.875.47-.438.312-.656.76-.656 1.343 0 .48.143.844.436 1.094.29.24.844.436 1.656.593l.89.187c1.103.21 1.915.578 2.44 1.11.53.53.795 1.242.795 2.124 0 1.063-.355 1.87-1.062 2.422C6.915-.05 5.875.22 4.5.22 3.977.22 3.426.155 2.844.03 2.258-.08 1.656-.253 1.03-.483V-2c.603.336 1.193.59 1.767.766.57.168 1.14.25 1.703.25.844 0 1.492-.164 1.953-.5.457-.332.688-.805.688-1.422 0-.54-.167-.96-.5-1.266-.324-.3-.86-.523-1.61-.672l-.905-.187C3.02-5.25 2.22-5.595 1.72-6.063 1.226-6.532.983-7.18.983-8.017c0-.968.336-1.726 1.016-2.28.688-.563 1.63-.845 2.828-.845.508 0 1.03.046 1.563.14.532.094 1.08.234 1.64.422zm0 0"/></symbol></defs><g><path fill="#fff" d="M0 0h300v300H0z"/><path d="M41.594 205.094L70.64 224.98" stroke-width="1.2" stroke="#000" stroke-miterlimit="10" fill="none"/><path d="M102.383 209.766m-2.89.808l.452.942m-3.34-.137l.9 1.882m-3.79-1.075l1.35 2.82m-4.24-2.015l1.804 3.762m-4.692-2.953l2.25 4.7m-5.14-3.895l2.702 5.645m-5.594-4.836l3.156 6.582m-6.046-5.777l3.605 7.522m-6.49-6.715l4.054 8.46m-6.946-7.655l4.508 9.406m-7.398-8.597l4.957 10.344m-7.602-9.605l5.37 11.202" stroke="#000" stroke-miterlimit="10" fill="none"/><path d="M102.383 209.766l29.047 19.886M102.383 209.766l1.35-17.547" stroke-width="1.2" stroke="#000" stroke-miterlimit="10" fill="none"/><path d="M103.734 192.22l1.348-17.552" stroke-width="1.2" stroke="#00f" stroke-miterlimit="10" fill="none"/><path d="M131.43 229.652l34.43-9.61-5.372-11.202zm0 0"/><path d="M131.43 229.652l-1.348 17.55" stroke-width="1.2" stroke="#000" stroke-miterlimit="10" fill="none"/><path d="M130.082 247.203l-1.352 17.547" stroke-width="1.2" stroke="#f00" stroke-miterlimit="10" fill="none"/><path d="M163.176 214.44l2.695-35.096M171.703 211.566l2.156-28.078M192.22 234.324l-29.044-19.883M165.87 179.344l31.747-15.215M197.617 164.13l29.047 19.886M195.844 172.953l23.234 15.91M197.617 164.13l1.348-17.548" stroke-width="1.2" stroke="#000" stroke-miterlimit="10" fill="none"/><path d="M198.965 146.582l1.347-17.55" stroke-width="1.2" stroke="#f00" stroke-miterlimit="10" fill="none"/><path d="M226.664 184.016l-2.7 35.097M226.664 184.016l15.87-7.606" stroke-width="1.2" stroke="#000" stroke-miterlimit="10" fill="none"/><path d="M242.535 176.41l15.87-7.605" stroke-width="1.2" stroke="#f00" stroke-miterlimit="10" fill="none"/><path d="M223.965 219.113l-31.746 15.21M217.21 213.164l-25.394 12.172" stroke-width="1.2" stroke="#000" stroke-miterlimit="10" fill="none"/><path d="M247.406 159.805h23v18h-23zm0 0" fill="#fff"/><g fill="#f00"><use xlink:href="#a" x="247.406" y="173.419"/><use xlink:href="#b" x="258.955" y="173.419"/></g><path d="M189.313 120.03h23v18h-23zm0 0" fill="#fff"/><g fill="#f00"><use xlink:href="#a" x="189.313" y="133.646"/><use xlink:href="#b" x="200.861" y="133.646"/></g><path d="M117.73 255.75h23v18h-23zm0 0" fill="#fff"/><g fill="#f00"><use xlink:href="#b" x="117.73" y="269.364"/><use xlink:href="#a" x="128.763" y="269.364"/></g><path d="M105.082 174.668l-14.523-9.94" stroke-width="1.2" stroke="#00f" stroke-miterlimit="10" fill="none"/><path d="M90.56 164.727l-14.525-9.942" stroke-width="1.2" stroke="#000" stroke-miterlimit="10" fill="none"/><path d="M94.082 165.668h23v18h-23zm0 0" fill="#fff"/><g fill="#00f"><use xlink:href="#c" x="94.082" y="179.282"/><use xlink:href="#b" x="105.058" y="179.282"/></g><path d="M76.035 154.785l2.7-35.097M76.035 154.785l-31.746 15.21M111.113 83.336l15.242-8.8" stroke-width="1.2" stroke="#000" stroke-miterlimit="10" fill="none"/><path d="M126.355 74.535l15.243-8.8M138.012 67.805l8.8 15.242" stroke-width="1.2" stroke="#cc0" stroke-miterlimit="10" fill="none"/><path d="M146.813 83.047l8.796 15.242" stroke-width="1.2" stroke="#f00" stroke-miterlimit="10" fill="none"/><path d="M145.184 63.664l8.8 15.242" stroke-width="1.2" stroke="#cc0" stroke-miterlimit="10" fill="none"/><path d="M153.984 78.906l8.8 15.242" stroke-width="1.2" stroke="#f00" stroke-miterlimit="10" fill="none"/><path d="M145.184 63.664l-8.8-15.242" stroke-width="1.2" stroke="#cc0" stroke-miterlimit="10" fill="none"/><path d="M136.383 48.422l-8.8-15.242" stroke-width="1.2" stroke="#f00" stroke-miterlimit="10" fill="none"/><path d="M138.012 67.805l-8.8-15.243" stroke-width="1.2" stroke="#cc0" stroke-miterlimit="10" fill="none"/><path d="M129.21 52.563l-8.8-15.243" stroke-width="1.2" stroke="#f00" stroke-miterlimit="10" fill="none"/><path d="M141.598 65.734l15.242-8.8" stroke-width="1.2" stroke="#cc0" stroke-miterlimit="10" fill="none"/><path d="M156.84 56.934l15.242-8.8" stroke-width="1.2" stroke="#f00" stroke-miterlimit="10" fill="none"/><path d="M136.598 56.734h10v18h-10zm0 0" fill="#fff"/><use xlink:href="#d" x="136.598" y="70.349" fill="#cc0"/><path d="M153.2 87.22h12v18h-12zm0 0" fill="#fff"/><use xlink:href="#a" x="153.199" y="100.833" fill="#f00"/><path d="M111.996 26.25h12v18h-12zm0 0" fill="#fff"/><use xlink:href="#a" x="111.996" y="39.864" fill="#f00"/><path d="M161.082 39.133h23v18h-23zm0 0" fill="#fff"/><g fill="#f00"><use xlink:href="#a" x="161.082" y="52.747"/><use xlink:href="#b" x="172.631" y="52.747"/></g></g></svg>
